public/library/merkl-text-light.svg

<svg width="120" height="34" viewBox="0 0 120 34" fill="none" xmlns="http://www.w3.org/2000/svg">
<g clip-path="url(#clip0_2626_9027)">
<g clip-path="url(#clip1_2626_9027)">
<path d="M53.0808 8.58984C45.5724 8.58984 40.614 13.6288 40.614 21.3079C40.614 28.9871 45.4776 33.8821 53.4588 33.8821C59.976 33.8821 64.2732 30.0431 65.0292 25.3396H58.4172C57.8508 27.5468 55.914 28.7468 53.2224 28.7468C49.8696 28.7468 47.508 26.6359 47.508 23.1323V22.8445H65.2176C65.2644 21.9811 65.2644 21.2604 65.2644 20.5409C65.2644 13.2459 60.258 8.59106 53.0808 8.59106V8.58984ZM47.6028 18.3324C48.0756 15.4531 50.2476 13.7251 53.0808 13.7251C56.1036 13.7251 58.134 15.4044 58.5588 18.3799L47.6028 18.3324Z" fill="white"/>
<path d="M75.4668 12.6221L74.8524 8.97461H69.0432V33.5949H75.702V21.5012C75.702 17.8062 77.2128 15.1184 81.1332 15.1184H83.8248V8.97583H82.4556C78.63 8.97583 76.7412 10.4636 75.4668 12.6233V12.6221Z" fill="white"/>
<path d="M93.5544 0H86.8956L86.9424 33.5946H93.6012L93.5544 19.3411V0Z" fill="white"/>
<path d="M120 0H113.341V33.5946H120V0Z" fill="white"/>
<path d="M18.5124 6.91086H24.8988L18.5124 24.6203L9.3504 0H0.0468L0 18.3777H6.7536V11.0864L15.348 33.5946H21.1092L29.7048 11.0864V33.5946H36.5052V6.91086V0H18.5124V6.91086Z" fill="white"/>
<path d="M98.5344 18.3781H98.3556C100.108 18.3781 101.78 17.6342 102.971 16.3269L109.662 8.97461H104.782C103.016 8.97461 101.333 9.72826 100.141 11.0526L93.552 18.3781L101.514 30.712C102.676 32.5108 104.653 33.5949 106.775 33.5949H111.025L103.939 21.4964C102.806 19.5635 100.752 18.3781 98.5332 18.3781H98.5344Z" fill="white"/>
<path d="M0 25.3415V33.5938L2.6028 32.6377C5.094 31.7231 6.7524 29.3207 6.7524 26.6293V18.377L4.1496 19.333C1.6596 20.2477 0 22.6501 0 25.3415Z" fill="white"/>
</g>
</g>
<defs>
<clipPath id="clip0_2626_9027">
<rect width="120" height="33.8824" fill="white"/>
</clipPath>
<clipPath id="clip1_2626_9027">
<rect width="120" height="33.8824" fill="white"/>
</clipPath>
</defs>
</svg>

<svg xmlns="http://www.w3.org/2000/svg" width="120" height="34" fill="none" viewBox="0 0 120 34"><g clip-path="url(#a)"><g fill="#fff" clip-path="url(#b)"><path d="M53.08 8.59c-7.508 0-12.466 5.039-12.466 12.718s4.864 12.574 12.845 12.574c6.517 0 10.814-3.839 11.57-8.542h-6.612c-.566 2.207-2.503 3.407-5.195 3.407-3.352 0-5.714-2.111-5.714-5.615v-.288h17.71c.046-.863.046-1.584.046-2.303 0-7.295-5.006-11.95-12.183-11.95zm-5.477 9.742c.473-2.879 2.645-4.607 5.478-4.607 3.023 0 5.053 1.68 5.478 4.655zM75.467 12.622l-.615-3.647h-5.809v24.62h6.659V21.5c0-3.695 1.51-6.383 5.431-6.383h2.692V8.976h-1.37c-3.825 0-5.714 1.488-6.988 3.647M93.554 0h-6.658l.046 33.595h6.66l-.048-14.254zM120 0h-6.659v33.595H120zM18.512 6.91H24.9l-6.387 17.71L9.35 0H.047L0 18.378h6.754v-7.292l8.594 22.509h5.761l8.596-22.509v22.509h6.8V0H18.512z"/><path d="M98.534 18.378h-.178a6.24 6.24 0 0 0 4.615-2.051l6.691-7.352h-4.88a6.24 6.24 0 0 0-4.641 2.078l-6.589 7.325 7.962 12.334a6.27 6.27 0 0 0 5.261 2.883h4.25l-7.086-12.099a6.27 6.27 0 0 0-5.406-3.118zM0 25.342v8.252l2.603-.956c2.491-.915 4.15-3.317 4.15-6.009v-8.252l-2.603.956C1.66 20.248 0 22.65 0 25.342"/></g></g><defs><clipPath id="a"><path fill="#fff" d="M0 0h120v33.882H0z"/></clipPath><clipPath id="b"><path fill="#fff" d="M0 0h120v33.882H0z"/></clipPath></defs></svg>
